;FLAVOR:Marlin
;TIME:5623
;Filament used: 2.91554m
;Layer height: 0.35
;Generated with Cura_SteamEngine 3.2.1
M104 S210
M109 S210
M82 ;absolute extrusion mode
G21 ; set units to millimeters
G28 Z0
G1 Z5 F200
;LAYER_COUNT:72
;LAYER:0
M107
G0 F900 X18.161 Y23.791 Z0.3
;TYPE:SKIRT
G1 F600 X18.586 Y23.57 E0.02115
G1 X19.042 Y23.422 E0.04232
G1 X19.696 Y23.347 E0.07139
G1 X21.613 Y23.348 E0.15604
G1 X22.1 Y23.39 E0.17762
G1 X25.079 Y23.903 E0.3111
G1 X30.562 Y24.605 E0.55519
G1 X36.038 Y24.993 E0.7976
G1 X41.545 Y25.071 E1.0408
G1 X47.012 Y24.839 E1.28243
G1 X52.495 Y24.294 E1.52573
G1 X58.312 Y23.383 E1.78573
G1 X58.756 Y23.348 E1.80539
G1 X60.675 Y23.347 E1.89013
G1 X61.152 Y23.387 E1.91127
G1 X61.616 Y23.505 E1.93241
G1 X62.054 Y23.699 E1.95356
G1 X62.454 Y23.963 E1.97472
G1 X62.805 Y24.29 E1.99591
G1 X63.096 Y24.67 E2.01704
G1 X63.32 Y25.094 E2.03822
G1 X63.471 Y25.549 E2.05939
G1 X63.551 Y26.225 E2.08944
G1 X63.549 Y28.351 E2.18332
G1 X63.542 Y28.551 E2.19216
G1 X63.146 Y34.149 E2.43997
G1 X63.06 Y38.229 E2.62017
G1 X63.05 Y46.308 E2.97692
G1 X63.009 Y46.785 E2.99806
G1 X62.89 Y47.249 E3.01921
G1 X62.696 Y47.687 E3.04036
G1 X62.431 Y48.086 E3.06151
G1 X62.103 Y48.436 E3.08269
G1 X61.723 Y48.727 E3.10383
G1 X61.299 Y48.95 E3.12498
G1 X60.844 Y49.1 E3.14614
G1 X60.175 Y49.179 E3.17588
G1 X20.194 Y49.179 E4.94133
G1 X19.717 Y49.139 E4.96247
G1 X19.252 Y49.02 E4.98366
G1 X18.814 Y48.826 E5.00481
G1 X18.414 Y48.562 E5.02598
G1 X18.064 Y48.235 E5.04713
G1 X17.773 Y47.855 E5.06826
G1 X17.549 Y47.431 E5.08944
G1 X17.399 Y46.976 E5.11059
G1 X17.319 Y46.307 E5.14034
G1 X17.31 Y38.277 E5.49493
G1 X17.153 Y32.713 E5.74071
G1 X16.817 Y27.907 E5.95345
G1 X16.81 Y27.688 E5.96313
G1 X16.82 Y26.203 E6.0287
G1 X16.863 Y25.725 E6.04989
G1 X16.985 Y25.262 E6.07104
G1 X17.182 Y24.825 E6.0922
G1 X17.449 Y24.427 E6.11337
G1 X17.778 Y24.079 E6.13451
G1 X18.161 Y23.791 E6.15567
G0 F900 X18.494 Y24.001
G1 F600 X18.906 Y23.823 E6.17549
G1 X19.344 Y23.722 E6.19534
G1 X19.696 Y23.697 E6.21092
G1 X21.613 Y23.698 E6.29557
G1 X22.041 Y23.735 E6.31454
G1 X25.025 Y24.249 E6.44825
G1 X30.526 Y24.953 E6.69314
G1 X36.027 Y25.343 E6.93665
G1 X41.537 Y25.421 E7.17998
G1 X47.043 Y25.187 E7.42333
G1 X52.532 Y24.642 E7.6669
G1 X58.366 Y23.728 E7.92766
G1 X58.756 Y23.698 E7.94493
G1 X60.675 Y23.697 E8.02967
G1 X61.122 Y23.737 E8.04949
G1 X61.555 Y23.855 E8.0693
G1 X61.96 Y24.048 E8.08911
G1 X62.325 Y24.31 E8.10895
G1 X62.638 Y24.632 E8.12878
G1 X62.888 Y25.005 E8.14861
G1 X63.069 Y25.416 E8.16844
G1 X63.174 Y25.852 E8.18824
G1 X63.201 Y26.224 E8.20471
G1 X63.199 Y28.35 E8.29859
G1 X63.193 Y28.526 E8.30637
G1 X62.796 Y34.137 E8.55475
G1 X62.71 Y38.228 E8.73544
G1 X62.7 Y46.307 E9.09219
G1 X62.66 Y46.754 E9.112
G1 X62.54 Y47.187 E9.13184
G1 X62.347 Y47.592 E9.15165
G1 X62.084 Y47.957 E9.17152
G1 X61.761 Y48.269 E9.19135
G1 X61.388 Y48.518 E9.21115
G1 X60.977 Y48.698 E9.23097
G1 X60.54 Y48.802 E9.2508
G1 X60.175 Y48.829 E9.26696
G1 X20.194 Y48.829 E11.03241
G1 X19.747 Y48.789 E11.05223
G1 X19.314 Y48.671 E11.07204
G1 X18.908 Y48.477 E11.09191
G1 X18.544 Y48.215 E11.11172
G1 X18.231 Y47.893 E11.13155
G1 X17.981 Y47.52 E11.15137
G1 X17.801 Y47.109 E11.17119
G1 X17.696 Y46.672 E11.19103
G1 X17.669 Y46.307 E11.20719
G1 X17.66 Y38.267 E11.56222
G1 X17.503 Y32.703 E11.80801
G1 X17.166 Y27.883 E12.02136
G1 X17.16 Y27.69 E12.02989
G1 X17.17 Y26.205 E12.09546
G1 X17.213 Y25.758 E12.11529
G1 X17.334 Y25.326 E12.1351
G1 X17.53 Y24.922 E12.15493
G1 X17.795 Y24.559 E12.17478
G1 X18.12 Y24.249 E12.19461
G1 X18.494 Y24.001 E12.21443
G0 F900 X18.458 Y24.433
G1 F600 X18.822 Y24.23 E12.23283
G1 X19.218 Y24.1 E12.25123
G1 X19.696 Y24.047 E12.27247
G1 X21.613 Y24.048 E12.35712
G1 X21.981 Y24.08 E12.37343
G1 X24.987 Y24.598 E12.50812
G1 X30.476 Y25.3 E12.75248
G1 X36.015 Y25.693 E12.99768
G1 X41.547 Y25.771 E13.24198
G1 X47.075 Y25.536 E13.4863
G1 X52.566 Y24.991 E13.72996
G1 X58.42 Y24.074 E13.99161
G1 X58.756 Y24.048 E14.00649
G1 X60.675 Y24.047 E14.09122
G1 X61.09 Y24.087 E14.10964
G1 X61.489 Y24.205 E14.12801
G1 X61.859 Y24.397 E14.14642
G1 X62.185 Y24.656 E14.1648
G1 X62.456 Y24.972 E14.18318
G1 X62.662 Y25.335 E14.20161
G1 X62.795 Y25.73 E14.22002
G1 X62.851 Y26.224 E14.24197
G1 X62.849 Y28.35 E14.33585
G1 X62.844 Y28.501 E14.34252
G1 X62.448 Y34.105 E14.59059
G1 X62.36 Y38.271 E14.77459
G1 X62.35 Y46.307 E15.12944
G1 X62.31 Y46.721 E15.14781
G1 X62.191 Y47.121 E15.16623
G1 X61.998 Y47.49 E15.18462
G1 X61.738 Y47.816 E15.20304
G1 X61.421 Y48.086 E15.22142
G1 X61.059 Y48.291 E15.23979
G1 X60.664 Y48.423 E15.25818
G1 X60.175 Y48.479 E15.27992
G1 X20.194 Y48.479 E17.04536
G1 X19.779 Y48.439 E17.06377
G1 X19.38 Y48.321 E17.08215
G1 X19.01 Y48.129 E17.10055
G1 X18.684 Y47.869 E17.11897
G1 X18.413 Y47.553 E17.13735
G1 X18.208 Y47.19 E17.15576
G1 X18.075 Y46.795 E17.17416
G1 X18.019 Y46.306 E17.19589
G1 X18.01 Y38.258 E17.55127
G1 X17.853 Y32.693 E17.7971
G1 X17.515 Y27.859 E18.01108
G1 X17.51 Y27.692 E18.01846
G1 X17.52 Y26.207 E18.08403
G1 X17.563 Y25.793 E18.10241
G1 X17.684 Y25.394 E18.12082
G1 X17.878 Y25.026 E18.13919
G1 X18.14 Y24.701 E18.15763
G1 X18.458 Y24.433 E18.17599
G1 F1500 E11.67599
G0 F900 X19.874 Y25.548
G0 X19.874 Y26.402
G0 X22.804 Y29.509
G0 X22.761 Y29.598
;TYPE:WALL-OUTER
G1 F1500 E18.17599
G1 F600 X19.86 Y28.226 E18.31769
G1 X19.86 Y26.388 E18.39886
G1 X21.58 Y26.388 E18.47481
G1 X23.01 Y27.065 E18.54467
G1 X23.01 Y29.44 E18.64954
G1 X23.01 Y29.441 E18.64959
G1 X23.01 Y29.716 E18.66173
G1 X22.761 Y29.598 E18.66875
G0 F900 X22.603 Y29.524
G0 X22.67 Y29.179
;TYPE:SKIN
G1 F600 X20.2 Y28.01 E18.78942
G1 X20.2 Y26.728 E18.84603
G1 X21.504 Y26.728 E18.90361
G1 X22.67 Y27.28 E18.96058
G1 X22.67 Y29.179 E19.04443
G0 F900 X22.511 Y27.461
G1 F600 X22.355 Y27.305 E19.05417
G0 F900 X22.511 Y27.956
G1 F600 X21.44 Y26.885 E19.12105
G1 X21.379 Y26.824
G0 F900 X20.945 Y26.885
G1 F600 X22.511 Y28.451 E19.21885
G1 X22.572 Y28.512
G0 F900 X22.478 Y28.913
G1 F600 X20.45 Y26.885 E19.34549
G1 X20.389 Y26.824
G0 F900 X20.357 Y27.287
G1 F600 X21.539 Y28.468 E19.41927
G1 X21.6 Y28.529
G0 F900 X20.598 Y28.023
G1 F600 X20.357 Y27.782 E19.43432
G1 F1500 E12.93432
G0 F900 X23 Y29.7
G0 X23.85 Y29.7
G0 X48.932 Y32.786
G0 X49.098 Y33.63
G0 X53.473 Y32.617
G0 X53.444 Y32.522
;TYPE:WALL-OUTER
G1 F1500 E19.43432
G1 F600 X56.277 Y31.508 E19.56719
G1 X56.51 Y31.425 E19.57811
G1 X56.51 Y31.672 E19.58457
G1 X56.51 Y31.673 E19.58462
G1 X56.51 Y42.138 E20.04672
G1 X23.86 Y42.138 E21.48845
G1 X23.86 Y31.673 E21.95055
G1 X23.86 Y31.672 E21.9506
G1 X23.86 Y31.425 E21.96151
G1 X24.093 Y31.508 E21.96797
G1 X26.926 Y32.522 E22.10084
G1 X31.274 Y33.611 E22.29877
G1 X35.708 Y34.268 E22.4967
G1 X40.185 Y34.488 E22.69463
G1 X44.661 Y34.268 E22.89251
G1 X49.095 Y33.611 E23.09044
G1 X53.444 Y32.522 E23.28841
G0 F900 X53.608 Y32.464
G0 X53.543 Y32.848
;TYPE:SKIN
G1 F600 X56.17 Y31.908 E23.41162
G1 X56.17 Y41.798 E23.84833
G1 X24.2 Y41.798 E25.26003
G1 X24.2 Y31.908 E25.69675
G1 X26.827 Y32.848 E25.81995
G1 X31.208 Y33.945 E26.01938
G1 X35.675 Y34.606 E26.21877
G1 X40.185 Y34.828 E26.41816
G1 X44.694 Y34.606 E26.61751
G1 X49.161 Y33.945 E26.81691
G1 X53.543 Y32.848 E27.01637
G0 F900 X55.922 Y32.164
G0 X55.966 Y32.208
G1 F600 X55.784 Y32.52 E27.03324
G0 F900 X56.011 Y33.242
G1 F600 X55.193 Y32.425 E27.08429
G1 X55.132 Y32.364
G0 F900 X54.829 Y32.555
G1 F600 X56.011 Y33.737 E27.1581
G1 X56.072 Y33.798
G0 F900 X56.011 Y34.232
G1 F600 X54.464 Y32.686 E27.25468
G1 X54.403 Y32.625
G0 F900 X54.1 Y32.816
G1 F600 X56.011 Y34.727 E27.37401
G1 X56.072 Y34.788
G0 F900 X56.011 Y35.222
G1 F600 X53.735 Y32.946 E27.51614
G1 X53.674 Y32.885
G0 F900 X53.352 Y33.058
G1 F600 X56.011 Y35.717 E27.68219
G1 X56.072 Y35.778
G0 F900 X56.011 Y36.212
G1 F600 X52.957 Y33.158 E27.87291
G1 X52.896 Y33.097
G0 F900 X52.561 Y33.257
G1 F600 X56.011 Y36.707 E28.08835
G1 X56.072 Y36.768
G0 F900 X56.011 Y37.202
G1 F600 X52.165 Y33.356 E28.32852
G1 X52.104 Y33.295
G0 F900 X51.769 Y33.455
G1 F600 X56.011 Y37.697 E28.59343
G1 X56.072 Y37.758
G0 F900 X56.011 Y38.192
G1 F600 X51.373 Y33.554 E28.88306
G1 X51.312 Y33.493
G0 F900 X50.977 Y33.653
G1 F600 X56.011 Y38.687 E29.19742
G1 X56.072 Y38.748
G0 F900 X56.011 Y39.182
G1 F600 X50.582 Y33.753 E29.53645
G1 X50.521 Y33.692
G0 F900 X50.186 Y33.852
G1 F600 X56.011 Y39.677 E29.90021
G1 X56.072 Y39.738
G0 F900 X56.011 Y40.172
G1 F600 X49.79 Y33.951 E30.28869
G1 X49.729 Y33.89
G0 F900 X49.394 Y34.05
G1 F600 X56.011 Y40.667 E30.70191
G1 X56.072 Y40.728
G0 F900 X56.011 Y41.162
G1 F600 X48.981 Y34.132 E31.14092
G1 X48.92 Y34.071
G0 F900 X48.549 Y34.195
G1 F600 X55.993 Y41.639 E31.60578
G1 X56.054 Y41.7
G0 F900 X55.498 Y41.639
G1 F600 X48.118 Y34.259 E32.06664
G1 X48.057 Y34.198
G0 F900 X47.687 Y34.322
G1 F600 X55.003 Y41.639 E32.52354
G1 X55.064 Y41.7
G0 F900 X54.508 Y41.639
G1 F600 X47.256 Y34.387 E32.97641
G1 X47.195 Y34.326
G0 F900 X46.825 Y34.45
G1 F600 X54.013 Y41.639 E33.42531
G1 X54.074 Y41.7
G0 F900 X53.518 Y41.639
G1 F600 X46.393 Y34.514 E33.87025
G1 X46.332 Y34.453
G0 F900 X45.962 Y34.578
G1 F600 X53.023 Y41.639 E34.31119
G1 X53.084 Y41.7
G0 F900 X52.528 Y41.639
G1 F600 X45.531 Y34.641 E34.74817
G1 X45.47 Y34.58
G0 F900 X45.1 Y34.706
G1 F600 X52.033 Y41.639 E35.18112
G1 X52.094 Y41.7
G0 F900 X51.538 Y41.639
G1 F600 X44.665 Y34.765 E35.61035
G1 X44.604 Y34.704
G0 F900 X44.193 Y34.788
G1 F600 X51.043 Y41.639 E36.03815
G1 X51.104 Y41.7
G0 F900 X50.548 Y41.639
G1 F600 X43.721 Y34.812 E36.46448
G1 X43.66 Y34.751
G0 F900 X43.25 Y34.835
G1 F600 X50.053 Y41.639 E36.88934
G1 X50.114 Y41.7
G0 F900 X49.558 Y41.639
G1 F600 X42.777 Y34.858 E37.3128
G1 X42.716 Y34.797
G0 F900 X42.306 Y34.881
G1 F600 X49.064 Y41.639 E37.73482
G1 X49.125 Y41.7
G0 F900 X48.569 Y41.639
G1 F600 X41.834 Y34.904 E38.15541
G1 X41.773 Y34.843
G0 F900 X41.362 Y34.928
G1 F600 X48.074 Y41.639 E38.57452
G1 X48.135 Y41.7
G0 F900 X47.579 Y41.639
G1 F600 X40.89 Y34.95 E38.99224
G1 X40.829 Y34.889
G0 F900 X40.418 Y34.974
G1 F600 X47.084 Y41.639 E39.40848
G1 X47.145 Y41.7
G0 F900 X46.589 Y41.639
G1 F600 X39.922 Y34.972 E39.82482
G1 X39.861 Y34.911
G0 F900 X39.402 Y34.947
G1 F600 X46.094 Y41.639 E40.24272
G1 X46.155 Y41.7
G0 F900 X45.599 Y41.639
G1 F600 X38.881 Y34.921 E40.66224
G1 X38.82 Y34.86
G0 F900 X38.361 Y34.896
G1 F600 X45.104 Y41.639 E41.08333
G1 X45.165 Y41.7
G0 F900 X44.609 Y41.639
G1 F600 X37.84 Y34.87 E41.50603
G1 X37.779 Y34.809
G0 F900 X37.319 Y34.844
G1 F600 X44.114 Y41.639 E41.93037
G1 X44.175 Y41.7
G0 F900 X43.619 Y41.639
G1 F600 X36.799 Y34.819 E42.35626
G1 X36.738 Y34.758
G0 F900 X36.278 Y34.793
G1 F600 X43.124 Y41.639 E42.78378
G1 X43.185 Y41.7
G0 F900 X42.629 Y41.639
G1 F600 X35.757 Y34.767 E43.21292
G1 X35.696 Y34.706
G0 F900 X35.188 Y34.693
G1 F600 X42.134 Y41.639 E43.64668
G1 X42.195 Y41.7
G0 F900 X41.639 Y41.639
G1 F600 X34.607 Y34.607 E44.08581
G1 X34.546 Y34.546
G0 F900 X34.026 Y34.521
G1 F600 X41.144 Y41.639 E44.53031
G1 X41.205 Y41.7
G0 F900 X40.649 Y41.639
G1 F600 X33.445 Y34.435 E44.98018
G1 X33.384 Y34.374
G0 F900 X32.864 Y34.349
G1 F600 X40.154 Y41.639 E45.43543
G1 X40.215 Y41.7
G0 F900 X39.659 Y41.639
G1 F600 X32.283 Y34.263 E45.89604
G1 X32.222 Y34.202
G0 F900 X31.703 Y34.178
G1 F600 X39.164 Y41.639 E46.36196
G1 X39.225 Y41.7
G0 F900 X38.669 Y41.639
G1 F600 X31.114 Y34.083 E46.83379
G1 X31.053 Y34.022
G0 F900 X30.454 Y33.919
G1 F600 X38.174 Y41.639 E47.31588
G1 X38.235 Y41.7
G0 F900 X37.679 Y41.639
G1 F600 X29.793 Y33.753 E47.80834
G1 X29.732 Y33.692
G0 F900 X29.133 Y33.588
G1 F600 X37.184 Y41.639 E48.31111
G1 X37.245 Y41.7
G0 F900 X36.689 Y41.639
G1 F600 X28.473 Y33.422 E48.82421
G1 X28.412 Y33.361
G0 F900 X27.812 Y33.257
G1 F600 X36.194 Y41.639 E49.34765
G1 X36.255 Y41.7
G0 F900 X35.699 Y41.639
G1 F600 X27.152 Y33.091 E49.88142
G1 X27.091 Y33.03
G0 F900 X26.443 Y32.878
G1 F600 X35.204 Y41.639 E50.42852
G1 X35.265 Y41.7
G0 F900 X34.709 Y41.639
G1 F600 X25.672 Y32.602 E50.99286
G1 X25.611 Y32.541
G0 F900 X24.902 Y32.327
G1 F600 X34.214 Y41.639 E51.57437
G1 X34.275 Y41.7
G0 F900 X33.719 Y41.639
G1 F600 X24.357 Y32.277 E52.15901
G1 X24.296 Y32.216
G0 F900 X24.357 Y32.772
G1 F600 X33.224 Y41.639 E52.71273
G1 X33.285 Y41.7
G0 F900 X32.729 Y41.639
G1 F600 X24.357 Y33.267 E53.23554
G1 X24.296 Y33.206
G0 F900 X24.357 Y33.762
G1 F600 X32.234 Y41.639 E53.72744
G1 X32.295 Y41.7
G0 F900 X31.739 Y41.639
G1 F600 X24.357 Y34.257 E54.18843
G1 X24.296 Y34.196
G0 F900 X24.357 Y34.752
G1 F600 X31.244 Y41.639 E54.61851
G1 X31.305 Y41.7
G0 F900 X30.749 Y41.639
G1 F600 X24.357 Y35.247 E55.01767
G1 X24.296 Y35.186
G0 F900 X24.357 Y35.742
G1 F600 X30.254 Y41.639 E55.38592
G1 X30.315 Y41.7
G0 F900 X29.76 Y41.639
G1 F600 X24.357 Y36.237 E55.7233
G1 X24.296 Y36.176
G0 F900 X24.357 Y36.732
G1 F600 X29.265 Y41.639 E56.02976
G1 X29.326 Y41.7
G0 F900 X28.77 Y41.639
G1 F600 X24.357 Y37.227 E56.30531
G1 X24.296 Y37.166
G0 F900 X24.357 Y37.722
G1 F600 X28.275 Y41.639 E56.54995
G1 X28.336 Y41.7
G0 F900 X27.78 Y41.639
G1 F600 X24.357 Y38.217 E56.76368
G1 X24.296 Y38.156
G0 F900 X24.357 Y38.711
G1 F600 X27.285 Y41.639 E56.94652
G1 X27.346 Y41.7
G0 F900 X26.79 Y41.639
G1 F600 X24.357 Y39.206 E57.09846
G1 X24.296 Y39.145
G0 F900 X24.357 Y39.701
G1 F600 X26.295 Y41.639 E57.21948
G1 X26.356 Y41.7
G0 F900 X25.8 Y41.639
G1 F600 X24.357 Y40.196 E57.30959
G1 X24.296 Y40.135
G0 F900 X24.357 Y40.691
G1 F600 X25.305 Y41.639 E57.36879
G1 X25.366 Y41.7
G0 F900 X24.81 Y41.639
G1 F600 X24.357 Y41.186 E57.39708
G1 F1500 E50.89708
G0 F900 X26.915 Y32.56
G0 X27.169 Y31.717
G0 X23.843 Y26.537
G0 X21.767 Y25.549
G0 X19.032 Y25.56
G0 X19.029 Y28.146
G0 X19.52 Y40.177
G0 X20.4 Y40.177
G0 X22.94 Y43.558
G0 X23.01 Y43.488
;TYPE:WALL-OUTER
G1 F1500 E57.39708
G1 F600 X57.36 Y43.488 E58.91388
G1 X57.36 Y30.59 E59.48342
G1 X57.472 Y30.55 E59.48867
G1 X59.761 Y29.467 E59.60049
G1 X60.01 Y29.35 E59.61264
G1 X60.01 Y29.625 E59.61966
G1 X60.01 Y29.626 E59.6197
G1 X60.01 Y46.138 E60.34882
G1 X20.36 Y46.138 E62.09965
G1 X20.36 Y29.626 E62.82878
G1 X20.36 Y29.625 E62.82882
G1 X20.36 Y29.35 E62.84096
G1 X20.609 Y29.468 E62.84799
G1 X22.897 Y30.55 E62.95975
G1 X23.01 Y30.59 E62.96504
G1 X23.01 Y43.488 E63.53458
G0 F900 X23.185 Y43.488
G0 X22.67 Y43.828
;TYPE:SKIN
G1 F600 X57.7 Y43.828 E65.0814
G1 X57.7 Y30.818 E65.65589
G1 X59.67 Y29.887 E65.7521
G1 X59.67 Y45.798 E66.45469
G1 X20.7 Y45.798 E68.17549
G1 X20.7 Y29.887 E68.87808
G1 X22.67 Y30.819 E68.97431
G1 X22.67 Y43.828 E69.54875
G0 F900 X21.385 Y45.639
G1 F600 X20.858 Y45.111 E69.58169
G1 X20.797 Y45.05
G0 F900 X20.858 Y44.617
G1 F600 X21.88 Y45.639 E69.64551
G1 X21.941 Y45.7
G0 F900 X22.375 Y45.639
G1 F600 X20.858 Y44.122 E69.74024
G1 X20.797 Y44.061
G0 F900 X20.858 Y43.627
G1 F600 X22.87 Y45.639 E69.86589
G1 X22.931 Y45.7
G0 F900 X23.365 Y45.639
G1 F600 X20.858 Y43.132 E70.02245
G1 X20.797 Y43.071
G0 F900 X20.858 Y42.637
G1 F600 X23.86 Y45.639 E70.20991
G1 X23.921 Y45.7
G0 F900 X24.355 Y45.639
G1 F600 X22.702 Y43.986 E70.31314
G1 X22.641 Y43.925
G0 F900 X22.512 Y43.796
G1 F600 X20.858 Y42.142 E70.41643
G1 X20.797 Y42.081
G0 F900 X20.858 Y41.647
G1 F600 X22.512 Y43.301 E70.51972
G1 X22.573 Y43.362
G0 F900 X22.512 Y42.806
G1 F600 X20.858 Y41.152 E70.623
G1 X20.797 Y41.091
G0 F900 X20.858 Y40.657
G1 F600 X22.512 Y42.311 E70.72629
G1 X22.573 Y42.372
G0 F900 X22.512 Y41.816
G1 F600 X20.858 Y40.162 E70.82958
G1 X20.797 Y40.101
G0 F900 X20.858 Y39.667
G1 F600 X22.512 Y41.321 E70.93287
G1 X22.573 Y41.382
G0 F900 X22.512 Y40.826
G1 F600 X20.858 Y39.172 E71.03616
G1 X20.797 Y39.111
G0 F900 X20.858 Y38.677
G1 F600 X22.512 Y40.331 E71.13945
G1 X22.573 Y40.392
G0 F900 X22.512 Y39.836
G1 F600 X20.858 Y38.182 E71.24273
G1 X20.797 Y38.121
G0 F900 X20.858 Y37.687
G1 F600 X22.512 Y39.341 E71.34602
G1 X22.573 Y39.402
G0 F900 X22.512 Y38.846
G1 F600 X20.858 Y37.192 E71.44931
G1 X20.797 Y37.131
G0 F900 X20.858 Y36.697
G1 F600 X22.512 Y38.351 E71.5526
G1 X22.573 Y38.412
G0 F900 X22.512 Y37.856
G1 F600 X20.858 Y36.202 E71.65589
G1 X20.797 Y36.141
G0 F900 X20.858 Y35.707
G1 F600 X22.512 Y37.361 E71.75918
G1 X22.573 Y37.422
G0 F900 X22.512 Y36.866
G1 F600 X20.858 Y35.212 E71.86246
G1 X20.797 Y35.151
G0 F900 X20.858 Y34.717
